static/init-loader/right-face-of-logo.svg

<svg
  xmlns="http://www.w3.org/2000/svg"
  width="94"
  height="31">
  <g fill="#3A4180" fill-rule="evenodd" transform="matrix(1 0 0 1 0 0)">
    <path fill-rule="nonzero"
          d="M 0.917 8.743 L 0.917 22.256999999999998 C 0.917 22.395 0.982 22.526999999999997 1.094 22.612 L 10.785 30.006 C 10.952 30.133 11.185 30.132 11.35 30.004 L 20.909 22.614 C 21.01874308632978 22.52935546238822 21.083015765876862 22.398593803960118 21.083 22.26 L 21.083 8.74 C 21.083015765876862 8.601406196039882 21.01874308632978 8.470644537611783 20.909 8.386000000000001 L 11.35 0.996 C 11.183709249017626 0.8678742088067593 10.952193657497599 0.867054684514349 10.785 0.994 L 1.094 8.388 C 0.9828496580684776 8.472241088770762 0.9173882001116657 8.603533843354558 0.917 8.743 Z M 0.53 7.678 L 10.223 0.28400000000000003 C 10.724386250473351 -0.09593146539857123 11.417865272691703 -0.09388459691988266 11.917000000000002 0.28900000000000003 L 21.476 7.678999999999999 C 21.805999999999997 7.935999999999999 22 8.325999999999999 22 8.738999999999999 L 22 22.26 C 22 22.674000000000003 21.807 23.064 21.476 23.32 L 11.917 30.71 C 11.418208075607192 31.093524087515267 10.724496193711353 31.095981153791765 10.222999999999999 30.716 L 0.53 23.322 C 0.19680322834883457 23.069171104706623 0.0007726558252175749 22.675260614852757 0 22.257 L 0 8.743 C 0 8.327 0.196 7.933 0.531 7.678000000000001 Z"
          transform="matrix(1 0 0 1 0 0)"></path>
  </g>
  <path
    d="M -0.8029994964599609 8.008999824523926 L -11.26099967956543 16.506999969482422 C -11.72842788696289 16.88669204711914 -11.999885559082031 17.456790924072266 -12 18.05900001525879 L -12 30.424999237060547 L -10.487000465393066 30.424999237060547 L -0.8029994964599609 23.131000518798828 L -0.8029994964599609 8.008999824523926 Z"
    transform="matrix(1 0 0 1 22.2874 -0.0288987)"
    fill=" rgb(58, 65, 128)"></path>
</svg>

<svg xmlns="http://www.w3.org/2000/svg" width="94" height="31"><path fill-rule="nonzero" d="M.917 8.743v13.514c0 .138.065.27.177.355l9.691 7.394c.167.127.4.126.565-.002l9.559-7.39a.447.447 0 0 0 .174-.354V8.74a.447.447 0 0 0-.174-.354L11.35.996a.465.465 0 0 0-.565-.002L1.094 8.388a.447.447 0 0 0-.177.355zM.53 7.678L10.223.284a1.397 1.397 0 0 1 1.694.005l9.559 7.39c.33.257.524.647.524 1.06V22.26c0 .414-.193.804-.524 1.06l-9.559 7.39a1.396 1.396 0 0 1-1.694.006L.53 23.322A1.34 1.34 0 0 1 0 22.257V8.743c0-.416.196-.81.531-1.065z" fill="#3A4180"/><path d="M21.484 7.98l-10.458 8.498a2 2 0 0 0-.739 1.552v12.366H11.8l9.684-7.294V7.98z" fill="#3A4180"/></svg>
